images/133323.svg

<?xml version="1.0" encoding="UTF-8"?>
<svg xmlns="http://www.w3.org/2000/svg" xmlns:xlink="http://www.w3.org/1999/xlink" width="300pt" height="300pt" viewBox="0 0 300 300" version="1.1">
<defs>
<g>
<symbol overflow="visible" id="glyph0-0">
<path style="stroke:none;" d="M 0.796875 2.828125 L 0.796875 -11.28125 L 8.796875 -11.28125 L 8.796875 2.828125 Z M 1.703125 1.9375 L 7.90625 1.9375 L 7.90625 -10.390625 L 1.703125 -10.390625 Z M 1.703125 1.9375 "/>
</symbol>
<symbol overflow="visible" id="glyph0-1">
<path style="stroke:none;" d="M 1.578125 -11.671875 L 3.703125 -11.671875 L 8.875 -1.90625 L 8.875 -11.671875 L 10.40625 -11.671875 L 10.40625 0 L 8.28125 0 L 3.109375 -9.765625 L 3.109375 0 L 1.578125 0 Z M 1.578125 -11.671875 "/>
</symbol>
<symbol overflow="visible" id="glyph0-2">
<path style="stroke:none;" d="M 6.3125 -10.59375 C 5.164062 -10.59375 4.253906 -10.164062 3.578125 -9.3125 C 2.898438 -8.457031 2.5625 -7.296875 2.5625 -5.828125 C 2.5625 -4.359375 2.898438 -3.195312 3.578125 -2.34375 C 4.253906 -1.488281 5.164062 -1.0625 6.3125 -1.0625 C 7.457031 -1.0625 8.363281 -1.488281 9.03125 -2.34375 C 9.695312 -3.195312 10.03125 -4.359375 10.03125 -5.828125 C 10.03125 -7.296875 9.695312 -8.457031 9.03125 -9.3125 C 8.363281 -10.164062 7.457031 -10.59375 6.3125 -10.59375 Z M 6.3125 -11.875 C 7.945312 -11.875 9.253906 -11.328125 10.234375 -10.234375 C 11.210938 -9.140625 11.703125 -7.671875 11.703125 -5.828125 C 11.703125 -3.984375 11.210938 -2.507812 10.234375 -1.40625 C 9.253906 -0.3125 7.945312 0.234375 6.3125 0.234375 C 4.664062 0.234375 3.351562 -0.3125 2.375 -1.40625 C 1.394531 -2.507812 0.90625 -3.984375 0.90625 -5.828125 C 0.90625 -7.671875 1.394531 -9.140625 2.375 -10.234375 C 3.351562 -11.328125 4.664062 -11.875 6.3125 -11.875 Z M 6.3125 -11.875 "/>
</symbol>
<symbol overflow="visible" id="glyph0-3">
<path style="stroke:none;" d="M 1.578125 -11.671875 L 3.15625 -11.671875 L 3.15625 -6.890625 L 8.890625 -6.890625 L 8.890625 -11.671875 L 10.46875 -11.671875 L 10.46875 0 L 8.890625 0 L 8.890625 -5.5625 L 3.15625 -5.5625 L 3.15625 0 L 1.578125 0 Z M 1.578125 -11.671875 "/>
</symbol>
</g>
</defs>
<g id="surface39849">
<rect x="0" y="0" width="300" height="300" style="fill:rgb(100%,100%,100%);fill-opacity:1;stroke:none;"/>
<path style="fill:none;stroke-width:1.2;stroke-linecap:butt;stroke-linejoin:miter;stroke:rgb(0%,0%,0%);stroke-opacity:1;stroke-miterlimit:10;" d="M 80.050781 263.011719 L 76.734375 244.175781 "/>
<path style="fill:none;stroke-width:1.2;stroke-linecap:butt;stroke-linejoin:miter;stroke:rgb(0%,0%,100%);stroke-opacity:1;stroke-miterlimit:10;" d="M 76.734375 244.175781 L 73.414062 225.339844 "/>
<path style="fill:none;stroke-width:1.2;stroke-linecap:butt;stroke-linejoin:miter;stroke:rgb(0%,0%,100%);stroke-opacity:1;stroke-miterlimit:10;" d="M 73.414062 225.339844 L 55.445312 218.796875 "/>
<path style="fill:none;stroke-width:1.2;stroke-linecap:butt;stroke-linejoin:miter;stroke:rgb(0%,0%,0%);stroke-opacity:1;stroke-miterlimit:10;" d="M 55.445312 218.796875 L 37.476562 212.25 "/>
<path style="fill:none;stroke-width:1.2;stroke-linecap:butt;stroke-linejoin:miter;stroke:rgb(0%,0%,0%);stroke-opacity:1;stroke-miterlimit:10;" d="M 102.722656 200.761719 L 88.070312 213.050781 "/>
<path style="fill:none;stroke-width:1.2;stroke-linecap:butt;stroke-linejoin:miter;stroke:rgb(0%,0%,100%);stroke-opacity:1;stroke-miterlimit:10;" d="M 88.070312 213.050781 L 73.414062 225.339844 "/>
<path style=" stroke:none;fill-rule:nonzero;fill:rgb(100%,100%,100%);fill-opacity:1;" d="M 67.414062 215.839844 L 79.414062 215.839844 L 79.414062 234.839844 L 67.414062 234.839844 Z M 67.414062 215.839844 "/>
<g style="fill:rgb(0%,0%,100%);fill-opacity:1;">
  <use xlink:href="#glyph0-1" x="67.414062" y="230.691406"/>
</g>
<path style="fill:none;stroke-width:1.2;stroke-linecap:butt;stroke-linejoin:miter;stroke:rgb(0%,0%,0%);stroke-opacity:1;stroke-miterlimit:10;" d="M 37.476562 212.25 L 30.84375 174.578125 "/>
<path style="fill:none;stroke-width:1.2;stroke-linecap:butt;stroke-linejoin:miter;stroke:rgb(0%,0%,0%);stroke-opacity:1;stroke-miterlimit:10;" d="M 30.84375 174.578125 L 60.148438 150 "/>
<path style="fill:none;stroke-width:1.2;stroke-linecap:butt;stroke-linejoin:miter;stroke:rgb(0%,0%,0%);stroke-opacity:1;stroke-miterlimit:10;" d="M 60.148438 150 L 53.515625 112.328125 "/>
<path style="fill:none;stroke-width:1.2;stroke-linecap:butt;stroke-linejoin:miter;stroke:rgb(0%,0%,0%);stroke-opacity:1;stroke-miterlimit:10;" d="M 68.351562 144.671875 L 63.042969 114.535156 "/>
<path style="fill:none;stroke-width:1.2;stroke-linecap:butt;stroke-linejoin:miter;stroke:rgb(0%,0%,0%);stroke-opacity:1;stroke-miterlimit:10;" d="M 96.089844 163.089844 L 60.148438 150 "/>
<path style="fill:none;stroke-width:1.2;stroke-linecap:butt;stroke-linejoin:miter;stroke:rgb(0%,0%,0%);stroke-opacity:1;stroke-miterlimit:10;" d="M 53.515625 112.328125 L 82.824219 87.75 "/>
<path style="fill:none;stroke-width:1.2;stroke-linecap:butt;stroke-linejoin:miter;stroke:rgb(0%,0%,0%);stroke-opacity:1;stroke-miterlimit:10;" d="M 82.824219 87.75 L 118.761719 100.839844 "/>
<path style="fill:none;stroke-width:1.2;stroke-linecap:butt;stroke-linejoin:miter;stroke:rgb(0%,0%,0%);stroke-opacity:1;stroke-miterlimit:10;" d="M 83.335938 97.515625 L 112.089844 107.988281 "/>
<path style="fill:none;stroke-width:1.2;stroke-linecap:butt;stroke-linejoin:miter;stroke:rgb(0%,0%,0%);stroke-opacity:1;stroke-miterlimit:10;" d="M 82.824219 87.75 L 79.507812 68.914062 "/>
<path style="fill:none;stroke-width:1.2;stroke-linecap:butt;stroke-linejoin:miter;stroke:rgb(100%,0%,0%);stroke-opacity:1;stroke-miterlimit:10;" d="M 79.507812 68.914062 L 76.191406 50.078125 "/>
<path style="fill:none;stroke-width:1.2;stroke-linecap:butt;stroke-linejoin:miter;stroke:rgb(0%,0%,0%);stroke-opacity:1;stroke-miterlimit:10;" d="M 118.761719 100.839844 L 125.398438 138.511719 "/>
<path style="fill:none;stroke-width:1.2;stroke-linecap:butt;stroke-linejoin:miter;stroke:rgb(0%,0%,0%);stroke-opacity:1;stroke-miterlimit:10;" d="M 118.761719 100.839844 L 133.417969 88.550781 "/>
<path style="fill:none;stroke-width:1.2;stroke-linecap:butt;stroke-linejoin:miter;stroke:rgb(100%,0%,0%);stroke-opacity:1;stroke-miterlimit:10;" d="M 133.417969 88.550781 L 148.070312 76.261719 "/>
<path style="fill:none;stroke-width:1.2;stroke-linecap:butt;stroke-linejoin:miter;stroke:rgb(0%,0%,0%);stroke-opacity:1;stroke-miterlimit:10;" d="M 125.398438 138.511719 L 96.089844 163.089844 "/>
<path style="fill:none;stroke-width:1.2;stroke-linecap:butt;stroke-linejoin:miter;stroke:rgb(0%,0%,0%);stroke-opacity:1;stroke-miterlimit:10;" d="M 128.25 147.863281 L 104.804688 167.527344 "/>
<path style="fill:none;stroke-width:1.2;stroke-linecap:butt;stroke-linejoin:miter;stroke:rgb(0%,0%,0%);stroke-opacity:1;stroke-miterlimit:10;" d="M 161.335938 151.601562 L 125.398438 138.511719 "/>
<path style="fill:none;stroke-width:1.2;stroke-linecap:butt;stroke-linejoin:miter;stroke:rgb(0%,0%,0%);stroke-opacity:1;stroke-miterlimit:10;" d="M 96.089844 163.089844 L 102.722656 200.761719 "/>
<path style="fill:none;stroke-width:1;stroke-linecap:butt;stroke-linejoin:miter;stroke:rgb(0%,0%,0%);stroke-opacity:1;stroke-miterlimit:10;" d="M 102.722656 200.761719 L 102.722656 200.761719 M 105.320312 202.261719 L 105.675781 201.28125 M 107.917969 203.761719 L 108.632812 201.804688 M 110.515625 205.265625 L 111.585938 202.324219 M 113.113281 206.765625 L 114.539062 202.847656 M 115.710938 208.265625 L 117.496094 203.367188 M 118.308594 209.765625 L 120.449219 203.886719 M 120.90625 211.269531 L 123.402344 204.410156 M 123.503906 212.769531 L 126.359375 204.929688 M 126.101562 214.269531 L 129.3125 205.453125 M 128.699219 215.769531 L 132.265625 205.972656 M 131.296875 217.273438 L 135.222656 206.496094 M 133.894531 218.773438 L 138.175781 207.015625 M 136.351562 220.195312 L 140.972656 207.507812 "/>
<path style="fill:none;stroke-width:1.2;stroke-linecap:butt;stroke-linejoin:miter;stroke:rgb(0%,0%,0%);stroke-opacity:1;stroke-miterlimit:10;" d="M 138.664062 213.851562 L 167.96875 189.273438 "/>
<path style="fill:none;stroke-width:1.2;stroke-linecap:butt;stroke-linejoin:miter;stroke:rgb(0%,0%,0%);stroke-opacity:1;stroke-miterlimit:10;" d="M 167.96875 189.273438 L 203.910156 202.363281 "/>
<path style="fill:none;stroke-width:1.2;stroke-linecap:butt;stroke-linejoin:miter;stroke:rgb(0%,0%,0%);stroke-opacity:1;stroke-miterlimit:10;" d="M 174.644531 182.125 L 203.394531 192.597656 "/>
<path style="fill:none;stroke-width:1.2;stroke-linecap:butt;stroke-linejoin:miter;stroke:rgb(0%,0%,0%);stroke-opacity:1;stroke-miterlimit:10;" d="M 161.335938 151.601562 L 167.96875 189.273438 "/>
<path style="fill:none;stroke-width:1.2;stroke-linecap:butt;stroke-linejoin:miter;stroke:rgb(0%,0%,0%);stroke-opacity:1;stroke-miterlimit:10;" d="M 203.910156 202.363281 L 233.21875 177.785156 "/>
<path style="fill:none;stroke-width:1.2;stroke-linecap:butt;stroke-linejoin:miter;stroke:rgb(0%,0%,0%);stroke-opacity:1;stroke-miterlimit:10;" d="M 233.21875 177.785156 L 226.585938 140.113281 "/>
<path style="fill:none;stroke-width:1.2;stroke-linecap:butt;stroke-linejoin:miter;stroke:rgb(0%,0%,0%);stroke-opacity:1;stroke-miterlimit:10;" d="M 223.691406 175.578125 L 218.382812 145.441406 "/>
<path style="fill:none;stroke-width:1.2;stroke-linecap:butt;stroke-linejoin:miter;stroke:rgb(0%,0%,0%);stroke-opacity:1;stroke-miterlimit:10;" d="M 233.21875 177.785156 L 251.1875 184.328125 "/>
<path style="fill:none;stroke-width:1.2;stroke-linecap:butt;stroke-linejoin:miter;stroke:rgb(100%,0%,0%);stroke-opacity:1;stroke-miterlimit:10;" d="M 251.1875 184.328125 L 269.15625 190.875 "/>
<path style="fill:none;stroke-width:1.2;stroke-linecap:butt;stroke-linejoin:miter;stroke:rgb(0%,0%,0%);stroke-opacity:1;stroke-miterlimit:10;" d="M 226.585938 140.113281 L 190.644531 127.023438 "/>
<path style="fill:none;stroke-width:1.2;stroke-linecap:butt;stroke-linejoin:miter;stroke:rgb(0%,0%,0%);stroke-opacity:1;stroke-miterlimit:10;" d="M 226.585938 140.113281 L 241.238281 127.824219 "/>
<path style="fill:none;stroke-width:1.2;stroke-linecap:butt;stroke-linejoin:miter;stroke:rgb(100%,0%,0%);stroke-opacity:1;stroke-miterlimit:10;" d="M 241.238281 127.824219 L 255.890625 115.53125 "/>
<path style="fill:none;stroke-width:1.2;stroke-linecap:butt;stroke-linejoin:miter;stroke:rgb(0%,0%,0%);stroke-opacity:1;stroke-miterlimit:10;" d="M 190.644531 127.023438 L 161.335938 151.601562 "/>
<path style="fill:none;stroke-width:1.2;stroke-linecap:butt;stroke-linejoin:miter;stroke:rgb(0%,0%,0%);stroke-opacity:1;stroke-miterlimit:10;" d="M 193.496094 136.375 L 170.050781 156.039062 "/>
<path style="fill:none;stroke-width:1.2;stroke-linecap:butt;stroke-linejoin:miter;stroke:rgb(100%,0%,0%);stroke-opacity:1;stroke-miterlimit:10;" d="M 255.890625 115.53125 L 252.574219 96.699219 "/>
<path style="fill:none;stroke-width:1.2;stroke-linecap:butt;stroke-linejoin:miter;stroke:rgb(0%,0%,0%);stroke-opacity:1;stroke-miterlimit:10;" d="M 252.574219 96.699219 L 249.257812 77.863281 "/>
<path style=" stroke:none;fill-rule:nonzero;fill:rgb(100%,100%,100%);fill-opacity:1;" d="M 249.890625 106.03125 L 262.890625 106.03125 L 262.890625 125.03125 L 249.890625 125.03125 Z M 249.890625 106.03125 "/>
<g style="fill:rgb(100%,0%,0%);fill-opacity:1;">
  <use xlink:href="#glyph0-2" x="249.890625" y="120.882812"/>
</g>
<path style=" stroke:none;fill-rule:nonzero;fill:rgb(100%,100%,100%);fill-opacity:1;" d="M 257.15625 181.375 L 282.15625 181.375 L 282.15625 200.375 L 257.15625 200.375 Z M 257.15625 181.375 "/>
<g style="fill:rgb(100%,0%,0%);fill-opacity:1;">
  <use xlink:href="#glyph0-2" x="257.15625" y="196.226562"/>
  <use xlink:href="#glyph0-3" x="269.75" y="196.226562"/>
</g>
<path style=" stroke:none;fill-rule:nonzero;fill:rgb(100%,100%,100%);fill-opacity:1;" d="M 136.070312 66.761719 L 161.070312 66.761719 L 161.070312 85.761719 L 136.070312 85.761719 Z M 136.070312 66.761719 "/>
<g style="fill:rgb(100%,0%,0%);fill-opacity:1;">
  <use xlink:href="#glyph0-2" x="136.070312" y="81.613281"/>
  <use xlink:href="#glyph0-3" x="148.664062" y="81.613281"/>
</g>
<path style="fill:none;stroke-width:1.2;stroke-linecap:butt;stroke-linejoin:miter;stroke:rgb(100%,0%,0%);stroke-opacity:1;stroke-miterlimit:10;" d="M 76.191406 50.078125 L 58.21875 43.535156 "/>
<path style="fill:none;stroke-width:1.2;stroke-linecap:butt;stroke-linejoin:miter;stroke:rgb(0%,0%,0%);stroke-opacity:1;stroke-miterlimit:10;" d="M 58.21875 43.535156 L 40.25 36.988281 "/>
<path style=" stroke:none;fill-rule:nonzero;fill:rgb(100%,100%,100%);fill-opacity:1;" d="M 70.191406 40.578125 L 83.191406 40.578125 L 83.191406 59.578125 L 70.191406 59.578125 Z M 70.191406 40.578125 "/>
<g style="fill:rgb(100%,0%,0%);fill-opacity:1;">
  <use xlink:href="#glyph0-2" x="70.191406" y="55.429688"/>
</g>
</g>
</svg>

<svg xmlns="http://www.w3.org/2000/svg" xmlns:xlink="http://www.w3.org/1999/xlink" width="300pt" height="300pt" viewBox="0 0 300 300"><defs><symbol overflow="visible"><path d="M.797 2.828v-14.11h8V2.83zm.906-.89h6.203v-12.33H1.703zm0 0"/></symbol><symbol overflow="visible" id="a"><path d="M1.578-11.672h2.125l5.172 9.766v-9.766h1.53V0H8.282L3.11-9.766V0H1.577zm0 0"/></symbol><symbol overflow="visible" id="b"><path d="M6.313-10.594c-1.15 0-2.06.43-2.735 1.28-.68.857-1.015 2.017-1.015 3.486 0 1.47.335 2.633 1.015 3.484.676.856 1.586 1.28 2.735 1.28 1.144.002 2.05-.424 2.718-1.28.665-.85 1-2.015 1-3.484 0-1.47-.335-2.63-1-3.484-.667-.852-1.573-1.282-2.717-1.282zm0-1.28c1.632 0 2.94.546 3.92 1.64.978 1.093 1.47 2.562 1.47 4.406 0 1.844-.492 3.32-1.47 4.422-.98 1.093-2.288 1.64-3.92 1.64-1.65 0-2.96-.546-3.938-1.64-.98-1.102-1.47-2.578-1.47-4.422 0-1.844.49-3.313 1.47-4.406.977-1.094 2.29-1.64 3.938-1.64zm0 0"/></symbol><symbol overflow="visible" id="c"><path d="M1.578-11.672h1.578v4.78H8.89v-4.78h1.58V0H8.89v-5.563H3.157V0H1.578zm0 0"/></symbol></defs><g><path fill="#fff" d="M0 0h300v300H0z"/><path d="M80.05 263.012l-3.316-18.836" stroke-width="1.2" stroke="#000" stroke-miterlimit="10" fill="none"/><path d="M76.734 244.176l-3.32-18.836M73.414 225.34l-17.97-6.543" stroke-width="1.2" stroke="#00f" stroke-miterlimit="10" fill="none"/><path d="M55.445 218.797l-17.968-6.547M102.723 200.762l-14.653 12.29" stroke-width="1.2" stroke="#000" stroke-miterlimit="10" fill="none"/><path d="M88.07 213.05l-14.656 12.29" stroke-width="1.2" stroke="#00f" stroke-miterlimit="10" fill="none"/><path d="M67.414 215.84h12v19h-12zm0 0" fill="#fff"/><use xlink:href="#a" x="67.414" y="230.691" fill="#00f"/><path d="M37.477 212.25l-6.633-37.672M30.844 174.578L60.148 150M60.148 150l-6.632-37.672M68.352 144.672l-5.31-30.137M96.09 163.09L60.148 150M53.516 112.328L82.824 87.75M82.824 87.75l35.938 13.09M83.336 97.516l28.754 10.472M82.824 87.75l-3.316-18.836" stroke-width="1.2" stroke="#000" stroke-miterlimit="10" fill="none"/><path d="M79.508 68.914L76.19 50.078" stroke-width="1.2" stroke="#f00" stroke-miterlimit="10" fill="none"/><path d="M118.762 100.84l6.636 37.672M118.762 100.84l14.656-12.29" stroke-width="1.2" stroke="#000" stroke-miterlimit="10" fill="none"/><path d="M133.418 88.55l14.652-12.288" stroke-width="1.2" stroke="#f00" stroke-miterlimit="10" fill="none"/><path d="M125.398 138.512L96.09 163.09M128.25 147.863l-23.445 19.664M161.336 151.602l-35.938-13.09M96.09 163.09l6.633 37.672" stroke-width="1.2" stroke="#000" stroke-miterlimit="10" fill="none"/><path d="M102.723 200.762m2.597 1.5l.356-.98m2.242 2.48l.715-1.957m1.883 3.46l1.07-2.94m1.527 4.44l1.426-3.917m1.17 5.418l1.786-4.9m.813 6.4l2.14-5.88m.456 7.384l2.496-6.86m.102 8.36l2.855-7.84m-.258 9.34l3.21-8.817m-.613 10.317l3.566-9.797m-.97 11.3l3.927-10.777m-1.328 12.277l4.28-11.757m-1.823 13.18l4.62-12.688" stroke="#000" stroke-miterlimit="10" fill="none"/><path d="M138.664 213.852l29.305-24.58M167.97 189.273l35.94 13.09M174.645 182.125l28.75 10.473M161.336 151.602l6.633 37.67M203.91 202.363l29.31-24.578M233.22 177.785l-6.634-37.672M223.69 175.578l-5.307-30.137M233.22 177.785l17.968 6.543" stroke-width="1.2" stroke="#000" stroke-miterlimit="10" fill="none"/><path d="M251.188 184.328l17.968 6.547" stroke-width="1.2" stroke="#f00" stroke-miterlimit="10" fill="none"/><path d="M226.586 140.113l-35.94-13.09M226.586 140.113l14.652-12.29" stroke-width="1.2" stroke="#000" stroke-miterlimit="10" fill="none"/><path d="M241.238 127.824l14.653-12.293" stroke-width="1.2" stroke="#f00" stroke-miterlimit="10" fill="none"/><path d="M190.645 127.023l-29.31 24.58M193.496 136.375L170.05 156.04" stroke-width="1.2" stroke="#000" stroke-miterlimit="10" fill="none"/><path d="M255.89 115.53l-3.316-18.83" stroke-width="1.2" stroke="#f00" stroke-miterlimit="10" fill="none"/><path d="M252.574 96.7l-3.316-18.837" stroke-width="1.2" stroke="#000" stroke-miterlimit="10" fill="none"/><path d="M249.89 106.03h13v19h-13zm0 0" fill="#fff"/><use xlink:href="#b" x="249.891" y="120.883" fill="#f00"/><path d="M257.156 181.375h25v19h-25zm0 0" fill="#fff"/><g fill="#f00"><use xlink:href="#b" x="257.156" y="196.227"/><use xlink:href="#c" x="269.75" y="196.227"/></g><path d="M136.07 66.762h25v19h-25zm0 0" fill="#fff"/><g fill="#f00"><use xlink:href="#b" x="136.07" y="81.613"/><use xlink:href="#c" x="148.664" y="81.613"/></g><path d="M76.19 50.078l-17.97-6.543" stroke-width="1.2" stroke="#f00" stroke-miterlimit="10" fill="none"/><path d="M58.22 43.535l-17.97-6.547" stroke-width="1.2" stroke="#000" stroke-miterlimit="10" fill="none"/><path d="M70.19 40.578h13v19h-13zm0 0" fill="#fff"/><use xlink:href="#b" x="70.191" y="55.43" fill="#f00"/></g></svg>
